<?xml version="1.0" encoding="UTF-8"?>
<map version="1.10" tiledversion="1.12.2-2-geb83ddb9" orientation="orthogonal" renderorder="right-down" width="12" height="18" tilewidth="64" tileheight="64" infinite="0" nextlayerid="6" nextobjectid="1">
 <tileset firstgid="1" source="rego_cader_tileset.tsx"/>
 <layer id="1" name="Ground" width="12" height="18">
  <data encoding="csv">
1,1,1,1,1,1,1,1,1,1,3,3,
1,2,1,1,1,1,1,1,1,1,3,3,
1,1,1,1,1,1,1,1,1,1,1,3,
1,3,1,1,1,1,1,1,1,1,2,3,
1,1,1,1,1,1,1,1,1,1,1,3,
1,1,1,1,1,1,1,1,1,1,1,3,
1,2,1,1,1,1,1,1,1,1,3,1,
1,1,1,1,1,1,1,1,1,1,1,1,
1,1,1,1,1,1,1,1,1,1,1,1,
1,3,1,1,1,1,1,1,1,1,2,1,
1,1,1,1,1,1,1,1,1,1,1,1,
1,1,1,1,1,1,1,1,1,1,1,1,
1,2,1,1,1,1,1,1,1,1,3,1,
1,1,1,1,1,1,1,1,1,1,1,1,
1,1,1,1,1,1,1,1,1,1,1,1,
1,3,1,1,1,1,1,1,1,1,2,1,
1,1,1,1,1,1,1,1,1,1,1,1,
1,1,1,1,1,1,1,1,1,1,1,1
</data>
 </layer>
 <layer id="2" name="Objects" width="12" height="18">
  <data encoding="csv">
0,0,0,0,0,0,0,0,0,0,0,0,
0,0,0,0,8,8,8,0,0,0,0,0,
0,0,0,0,0,0,0,0,0,0,0,0,
0,0,0,0,0,0,0,0,0,0,0,0,
0,0,0,0,0,0,0,0,0,0,0,0,
0,0,0,0,0,0,0,0,0,0,0,0,
0,0,0,0,0,0,0,0,0,0,0,0,
0,0,0,0,0,10,10,0,0,0,0,0,
0,0,0,4,4,4,4,4,0,0,0,0,
0,0,0,0,0,0,0,0,0,0,0,0,
0,0,0,0,0,0,0,0,0,0,0,0,
0,0,0,7,0,0,0,0,7,0,0,0,
0,0,0,0,0,0,0,0,0,0,0,0,
0,0,0,0,6,6,0,0,0,0,0,0,
0,0,0,5,0,0,0,0,5,0,0,0,
0,0,0,0,0,0,0,0,0,0,0,0,
0,0,0,0,0,0,0,0,0,0,0,0,
0,0,0,0,0,0,0,0,0,0,0,0
</data>
 </layer>
 <layer id="3" name="Collision" width="12" height="18">
  <data encoding="csv">
3,3,3,3,2,2,2,2,3,3,3,3,
3,3,0,0,8,8,8,0,0,0,3,3,
3,3,0,0,0,0,0,0,0,0,3,3,
3,3,0,0,0,0,0,0,0,0,3,3,
3,3,0,0,0,0,0,0,0,0,3,3,
3,3,0,0,0,0,0,0,0,0,3,3,
3,3,0,0,0,0,0,0,0,0,3,3,
3,3,0,0,0,10,10,0,0,0,3,3,
3,3,0,4,4,4,4,4,0,0,3,3,
3,3,0,0,0,0,0,0,0,0,3,3,
3,3,0,0,0,0,0,0,0,0,3,3,
3,3,0,0,0,0,0,0,0,0,3,3,
3,3,0,0,0,0,0,0,0,0,3,3,
3,3,0,0,0,1,1,1,1,1,3,3,
3,3,0,0,0,0,0,0,0,0,3,3,
3,3,0,0,0,0,0,0,0,0,3,3,
3,3,0,0,0,0,0,0,0,0,3,3,
3,3,2,2,2,2,2,2,2,2,3,3
</data>
 </layer>
 <objectgroup id="4" name="Spawns">
  <object id="1" name="PlayerStart1" type="spawn" x="320" y="960" width="64" height="64"/>
  <object id="2" name="PlayerStart2" type="spawn" x="384" y="960" width="64" height="64"/>
  <object id="3" name="CutpurseA" type="spawn" x="192" y="704" width="64" height="64"/>
  <object id="4" name="CutpurseB" type="spawn" x="512" y="704" width="64" height="64"/>
  <object id="5" name="Ruffian" type="spawn" x="320" y="448" width="64" height="64"/>
  <object id="6" name="Exit" type="exit" x="320" y="0" width="64" height="64"/>
 </objectgroup>
</map>
